X:1
T:Bunker Hill
T:A minor Ascribed to Sylvanus Ripley, 1749-1787 Published in Select Number of Plain Tunes , 1781 
T:Nathaniel Niles, 1775 An American Hero 11 11.11 5. 
T:Transcribed from Andrew Law's Select Number of Plain Tunes , 1781 . 
%%score [ 1 2 3 4 ]
L:1/8
Q:1/4=150
M:4/4
K:C
V:1 treble nm="Tr." snm="Tr."
V:2 treble nm="C." snm="C."
V:3 treble-8 nm="T." snm="T."
V:4 bass nm="B." snm="B."
V:1
"^1. Why should vain mortals tremble at the  sight  of  Death  and  destruction   in    the   field   of   battle, Where blood and carnage\n2. Death  will  invade  us by  the  means  appointed,  And  we must all    bow   to    the    king  of  terrors;    Nor   am  I    anxious, \n" A4 G2 A2 | %1
 B4 d4 | c3 c d2 c2 | B4 G4 || A4 d2 c2 | B4 B4 | e3 d c2 B2 | A4 A4 |: c4 d2 c2 | B4 B4 | %10
"^1. clothe the ground in crimson, Sounding with death-groans, Sounding with death-groans?\n2.     if    I    am   pre – pa –red,   What  shape  he   comes  in,   What   shape  he   comes  in.\n" A2 c2 B2 A2 | %11
 G4 G4 || A3 A e4 | d4 B4 | (c2 A2) G2 G2 |1 A4 A4 :|2 A4 A4- | A8 |] %18
V:2
"^3. In–fi–nite goodness teaches  us  sub–mis–sion,   Bids  us  be  qui  –  et      un  – der  all  his  dealings;    Ne – ver   re – pi–ning,\n4..Good is  Je–ho–vah in   bestowing   sunshine,    Nor less his  goodness     in  the storm and thunder,    Mercies  and judgment\n" E4 E2 E2 | %1
 E4 F4 | G3 G G2 F2 | E4 E4 || E4 G2 F2 | G4 G4 | E3 F E2 E2 | E4 E4 |: z8 | z8 | %10
"^3. but  for–ev – er    praising    God,  our   Cre  –   a  –  tor,     God,          our   Cre – a – tor.\n4. both proceed from kindness, In  –  fi  –  nite     kindness,     In      –       fi  – nite  kindness.\n" C2 C2 G2 F2 | %11
 E4 E4 || E3 F G4 | F4 F4 | (C3 D) E2 E2 |1 E4 E4 :|2 E4 E4- | E8 |] %18
V:3
"^5. Then to the wisdom  of my Lord  and  Master    I   will  commit      all     that      I   have   or  wish  for, Sweetly as babes' sleep\n6. Still shall the banner of the  King  of   heaven    Ne–ver advance   where  I'm      a–fraid    to   follow:  While that precedes me,\n" c4 B2 A2 | %1
 G4 A4 | E3 A G2 A2 | B4 B4 || c4 B2 c2 | d4 e4 | c3 A B2 G2 | A4 A4 |: z8 | z8 | %10
"^5. will   I  give   my   life  up    When  called   to     yield   it,    When      called   to   yield   it.\n6. with  an  o – pen   bosom,    War,    I      de    –    fy   thee,    War,            I       de – fy   thee.\n" e2 e2 d2 c2 | %11
 B4 B4 || c3 d (c2 B2) | A4 d4 | (e3 d) c2 B2 |1 A4 A4 :|2 A4 A4- | A8 |] %18
V:4
 G,4 E,2 A,,2 | E,4 D,4 | C,3 C, G,2 F,2 | E,4 E,4 || A,4 G,2 A,2 | (G,3 F,) E,4 | C,3 D, E,2 E,2 | %7
 A,,4 A,,4 |: C,4 D,2 C,2 | G,4 G,4 | %10
 A,2"^__________________________________________________________________________________________________________\nThe poem, of fifteen stanzas, was written by Nathaniel Niles in 1775, and published in a  broadside in 1781.  The stanzas given above \nhave been rearranged from the original. \nThe tune was published by Andrew Law in 1781, without words or attribution of composer; tune is sometimes ascribed to Sylvanus Ripley. \nThe tune was slightly rearranged, and new words added, by Joshua Leavitt in his \nChristian Lyre \nin 1831.\n" G,2 G,2 A,2 | %11
 E,4 E,4 || C,3 B,, C,4 | D,4 D,4 | %14
"^__________________________________________________________________\nEdited by B. C. Johnston, 2019.   Measure 11, all parts: the second quarter nogte added to make rhyme work.\n" (C,3 D,) E,2 E,2 |1 %15
 A,,4 A,,4 :|2 A,,4 A,,4- | A,,8 |] %18

